X: 22048
T: Knockatallon Cross
R: jig
M: 6/8
K: Dminor
|:fed dcB|AFD D3|fga gab|afd dde|
f3 fed|cAF F3|GAB ABc|FDB, D3:|
|:ABc GAB|ABc GAB|ABc dgf|ec=B c2e|
fga gab|afd def|cdc c2d|AFF F3:|

